X:244
T: Verhngnisvolle Trennung (19a), S.82
N: T0133
O: Luxemburg
S: Singendes Volk, Esch-Alzette 1937 posth.]
N: Wechsel von 3/4 und 4/4;
N: Rammeldingen, fff Wagener, 17.2.1934
R: Liebeslieder]
M: 3/4
L: 1/8
K: F
F | FAc2Ac | dBB2
Ac | AAA2GA | BGG2F2z
F | FAc2Ac | dBB2A
c | AAA2GA | BGG2F2z
F | FAc2Ac | dBB2A
c | AAA2GA | BGG2F2

@@@ Tune index: 8298
